X:0
T:The Barmaid
G:reel
S:Glenallan Collection p19
M:C|
L:1/8
Q:1/2=96
K:AMix
% but with no f's
e|a2 e>c A<Ae>c|B>GG>B g>ed>B|a2 e>c A<Ae>c|B>GG>B e2A:|
a|c>AA>a c<Ae>c|B>GG>g B<Gd>B|c>AA>a c<Ae>c|B>GG>B e2A:|

This one would be mixolydian/dorian/minor pentatonic, except that
the g's are included (to my ears they sound just plain weird, and
they are normally played sharp when the tune is done on fiddle or
accordion).  So it doesn't use the normal hexatonic pitch set.

